conversation/frontend/src/assets/illu-folder.svg

<svg fill="none" viewBox="0 0 150 150" xmlns="http://www.w3.org/2000/svg"><path d="m75 150c41.421 0 75-33.579 75-75 0-41.4214-33.579-75-75-75-41.4214 0-75 33.5786-75 75 0 41.421 33.5786 75 75 75z" fill="#e5f5ff"/><path d="m131.149 83.1153-40.8521 22.0047v-49.9145l40.8521-12.7534z" fill="#da6a0b"/><path d="m90.2976 55.2045-48.2248-4.8786-9.8834-14.5814c-.1144-.1687-.1807-.3654-.1917-.569-.011-.2035.0337-.4062.1292-.5863s.2382-.3308.4129-.4359c.1746-.1051.3746-.1606.5785-.1606h45.4282c.2051 0 .4063.0562.5817.1625s.3183.2586.4132.4404z" fill="#ffcba0"/><path d="m42.0754 100.243-16.842-3.5047c-.2525-.0526-.4792-.1905-.642-.3906-.1627-.2001-.2516-.4501-.2516-.7081v-47.6224c0-.1668.0372-.3314.1088-.482.0717-.1506.176-.2834.3053-.3886.1294-.1052.2806-.1803.4427-.2197.162-.0395.3308-.0423.494-.0083l16.3848 3.4092z" fill="#ffcba0"/><path d="m90.299 105.119-48.2248-4.878v-49.9153l48.2248 4.8785z" fill="#2a9cc8"/><path d="m78.0379 118.476-49.2059-1.963 13.2442-16.271 48.2247 4.879-11.3744 12.973c-.1103.126-.2474.226-.4011.292-.1538.066-.3203.097-.4875.09z" fill="#ffcba0"/><path d="m90.2971 55.2047 40.8519-12.7533-49.9342-4.6482z" fill="#ff8d2e"/><path d="m42.0742 100.241 48.2248-22.5184v-22.5184l-48.2248-4.8785z" fill="#2f7ea7"/><path d="m67.1689 93.4039s-20.0825-1.2327-17.736 13.1191c0 0-.4704 2.535 1.7863 3.687 0 0 .037-1.076 2.0611-.705.7208.124 1.4534.16 2.1826.108.9882-.067 1.9275-.463 2.6742-1.125 0 0 5.6495-2.374 7.848-11.7841 0 0 1.6277-2.0564 1.5855-2.584l-3.3929 1.4804s1.1573 2.4924.2431 4.5647c0 0-.1057-4.4732-.7611-4.3709-.1321 0-1.7598.8667-1.7598.8667s1.9924 4.3392.4862 7.4992c0 0 .5708-5.3513-1.1098-7.187l-2.3888 1.4212s2.3306 4.4838.7505 8.1448c0 0 .4069-5.615-1.2525-7.8003l-2.1668 1.7173s2.1932 4.425.8561 7.461c0 0-.1744-6.535-1.3265-7.03 0 0-1.892 1.701-2.1774 2.401 0 0 1.4957 3.229.5655 4.904 0 0-.5707-4.355-1.0569-4.377 0 0-1.8867 2.885-2.0823 4.845.0914-1.827.6507-3.597 1.6224-5.136-1.0873.21-2.0905.74-2.8855 1.524 0 0 .2907-2.04 3.3506-2.218 0 0 1.5855-2.191 1.9766-2.326 0 0-3.0441-.258-4.8885.576 0 0 1.6224-1.9214 5.4487-1.076l2.1139-1.7767s-4.0059-.5383-5.7077.0592c0 0 1.9555-1.7011 6.2838-.4629l2.3253-1.4158s-3.414-.7537-5.4487-.4791c0 0 2.1457-1.179 6.1305.0969l1.6647-.7591s-2.505-.5006-3.2343-.5814c-.7294-.0807-.7716-.2853-.7716-.2853 1.5847-.2686 3.2116-.0822 4.6982.5384 0 0 3.5673-1.3082 3.4933-1.5343z" fill="#5ac235"/><path d="m94.2016 94.368s-5.7966-15.4116-15.7117-8.8685c0 0-2.0476.495-2.1519 2.565 0 0 .8151-.3317 1.215 1.3041.149.5797.367 1.139.6497 1.6662.3805.7157.9892 1.2854 1.733 1.6219 0 0 3.6592 3.4273 11.4098 1.9285 0 0 2.0775.5294 2.4567.3218l-2.2383-2.0401s-1.4712 1.6964-3.3221 1.7053c0 0 3.2998-1.5721 3.0044-2.0275-.0442-.0987-1.2347-1.0252-1.2347-1.0252s-2.5685 2.9365-5.4281 2.8662c0 0 4.1802-1.3598 4.9868-3.2278l-1.8584-1.3098s-2.5638 3.2376-5.8213 3.2792c0 0 4.3221-1.5702 5.3966-3.5392l-2.0049-1.0452s-2.5656 3.1152-5.2763 3.1299c0 0 4.814-2.3117 4.798-3.3375 0 0-1.901-.8454-2.5182-.8249 0 0-1.9079 2.1952-3.4671 2.0593 0 0 3.056-1.88 2.9095-2.2503 0 0-2.7821-.4461-4.3084.0619 1.3925-.5416 2.8996-.7148 4.3713-.5024-.5198-.7423-1.2502-1.3148-2.1007-1.6468 0 0 1.6183-.4639 2.774 1.7624 0 0 2.1636.4529 2.3948.7001 0 0-.8254-2.36-2.0642-3.4591 0 0 1.9753.5704 2.6247 3.7104l2.0314.986s-.9383-3.1719-1.9529-4.2435c0 0 1.9222.8928 2.4465 4.539l1.8332 1.2643s-.5798-2.8016-1.4649-4.2297c0 0 1.5964 1.2091 1.9778 4.6113l1.1226.9901s-.4645-2.0382-.6481-2.6099c-.1837-.5717-.0454-.6716-.0454-.6716.7303 1.0941 1.1354 2.3715 1.1698 3.689 0 0 2.1682 2.2278 2.312 2.0971z" fill="#f1ca00"/><path d="m38.7214 114.703s-6.8989-19.3313-19.044-11.537c0 0-2.5033.546-2.6571 3.112 0 0 .9965-.386 1.4649 1.656.1753.725.4351 1.427.7739 2.091.4528.904 1.1879 1.635 2.0917 2.079 0 0 4.4229 4.376 13.8914 2.783 0 0 2.5208.729 2.978.46l-2.7217-2.597s-1.8125 2.052-4.0693 2.006c0 0 4.0401-1.845 3.6886-2.413-.0485-.126-1.4956-1.322-1.4956-1.322s-3.1695 3.564-6.6504 3.373c0 0 5.1278-1.549 6.1182-3.831l-2.2501-1.688s-3.1668 3.926-7.1403 3.868c0 0 5.2879-1.801 6.6259-4.206l-2.4356-1.368s-3.1624 3.774-6.4665 3.7c0 0 5.8966-2.7 5.9059-3.98 0 0-2.3078-1.112-3.0684-1.124 0 0-2.337 2.636-4.2458 2.438 0 0 3.7255-2.213 3.5776-2.67 0 0-3.3834-.65-5.2703-.065 1.707-.624 3.5494-.787 5.3436-.472-.6238-.939-1.5057-1.675-2.5372-2.119 0 0 1.9817-.518 3.361 2.28 0 0 2.625.614 2.911.954 0 0-.9758-2.955-2.4757-4.361 0 0 2.4062.773 3.1321 4.696l2.4738 1.319s-1.0909-3.978-2.3291-5.33c0 0 2.3312 1.172 2.9285 5.71l2.2168 1.632s-.676-3.498-1.7335-5.3c0 0 1.9325 1.562 2.3537 5.793l1.3592 1.265s-.5425-2.545-.7625-3.262c-.2201-.718-.0482-.836-.0482-.836.879 1.383 1.3603 2.982 1.3899 4.619 0 0 2.6216 2.797 2.8156 2.647z" fill="#5ac235"/><path d="m89.0545 125.955s-14.7652-8.956-18.5891 2.541c0 0-1.3497 1.675-.0892 3.421 0 0 .4457-.764 1.8404.31.4947.376 1.031.694 1.5985.948.7741.344 1.6387.43 2.4628.245 0 0 5.2225.516 10.5687-5.5 0 0 2.0375-.861 2.1913-1.272l-3.1492-.277s-.098 2.297-1.6071 3.454c0 0 1.6683-3.334 1.1482-3.509-.1077-.036-1.6735-.077-1.6735-.077s-.1886 3.989-2.5691 5.708c0 0 2.5286-3.703 1.9745-5.728l-2.3712.073s.0086 4.246-2.621 6.29c0 0 2.509-3.965 2.1073-6.236l-2.3152.397s-.0713 4.126-2.2729 5.824c0 0 2.422-4.865 1.7499-5.698 0 0-2.1024.491-2.5958.89 0 0-.1191 2.96-1.4876 3.832 0 0 1.2693-3.427.9251-3.629 0 0-2.5599 1.364-3.4869 2.739.7878-1.306 1.9069-2.385 3.2471-3.129-.9084-.28-1.8775-.292-2.789-.036 0 0 1.0244-1.38 3.4348-.29 0 0 2.0392-.983 2.4079-.914 0 0-2.207-1.406-3.9355-1.533 0 0 1.9868-.764 4.5445 1.407l2.3176-.449s-2.8227-2.017-4.353-2.24c0 0 2.1484-.471 4.9468 2.175l2.3221-.112s-2.3019-1.918-3.9431-2.53c0 0 2.0925-.009 4.6163 2.529l1.5592.104s-1.7039-1.368-2.2285-1.719c-.5245-.351-.4745-.518-.4745-.518 1.309.435 2.4722 1.223 3.3593 2.273 0 0 3.1907.427 3.2291.236z" fill="#d1af00"/><path d="m106.56 110.532-16.2592-5.413v-49.9144l16.9682 5.6489c.223.0744.418.2173.555.4084.138.1911.212.4207.212.6563v47.5498c0 .177-.042.353-.123.511s-.198.295-.343.399c-.144.104-.311.172-.486.199-.176.027-.356.011-.524-.045z" fill="#ffcba0"/></svg>

<svg  viewBox="0 0 150 150" fill="none" xmlns="http://www.w3.org/2000/svg">
<path d="M75 150C116.421 150 150 116.421 150 75C150 33.5786 116.421 0 75 0C33.5786 0 0 33.5786 0 75C0 116.421 33.5786 150 75 150Z" fill="#E5F5FF"/>
<path d="M131.149 83.1153L90.2969 105.12V55.2055L131.149 42.4521V83.1153Z" fill="#DA6A0B"/>
<path d="M90.2976 55.2045L42.0728 50.3259L32.1894 35.7445C32.075 35.5758 32.0087 35.3791 31.9977 35.1755C31.9867 34.972 32.0314 34.7693 32.1269 34.5892C32.2224 34.4091 32.3651 34.2584 32.5398 34.1533C32.7144 34.0482 32.9144 33.9927 33.1183 33.9927H78.5465C78.7516 33.9927 78.9528 34.0489 79.1282 34.1552C79.3036 34.2615 79.4465 34.4138 79.5414 34.5956L90.2976 55.2045Z" fill="#FFCBA0"/>
<path d="M42.0754 100.243L25.2334 96.7383C24.9809 96.6857 24.7542 96.5478 24.5914 96.3477C24.4287 96.1476 24.3398 95.8976 24.3398 95.6396V48.0172C24.3398 47.8504 24.377 47.6858 24.4486 47.5352C24.5203 47.3846 24.6246 47.2518 24.7539 47.1466C24.8833 47.0414 25.0345 46.9663 25.1966 46.9269C25.3586 46.8874 25.5274 46.8846 25.6906 46.9186L42.0754 50.3278V100.243Z" fill="#FFCBA0"/>
<path d="M90.299 105.119L42.0742 100.241V50.3257L90.299 55.2042V105.119Z" fill="#2A9CC8"/>
<path d="M78.0379 118.476L28.832 116.513L42.0762 100.242L90.3009 105.121L78.9265 118.094C78.8162 118.22 78.6791 118.32 78.5254 118.386C78.3716 118.452 78.2051 118.483 78.0379 118.476Z" fill="#FFCBA0"/>
<path d="M90.2971 55.2047L131.149 42.4514L81.2148 37.8032L90.2971 55.2047Z" fill="#FF8D2E"/>
<path d="M42.0742 100.241L90.299 77.7226V55.2042L42.0742 50.3257V100.241Z" fill="#2F7EA7"/>
<path d="M67.1689 93.4039C67.1689 93.4039 47.0864 92.1712 49.4329 106.523C49.4329 106.523 48.9625 109.058 51.2192 110.21C51.2192 110.21 51.2562 109.134 53.2803 109.505C54.0011 109.629 54.7337 109.665 55.4629 109.613C56.4511 109.546 57.3904 109.15 58.1371 108.488C58.1371 108.488 63.7866 106.114 65.9851 96.7039C65.9851 96.7039 67.6128 94.6475 67.5706 94.1199L64.1777 95.6003C64.1777 95.6003 65.335 98.0927 64.4208 100.165C64.4208 100.165 64.3151 95.6918 63.6597 95.7941C63.5276 95.7941 61.8999 96.6608 61.8999 96.6608C61.8999 96.6608 63.8923 101 62.3861 104.16C62.3861 104.16 62.9569 98.8087 61.2763 96.973L58.8875 98.3942C58.8875 98.3942 61.2181 102.878 59.638 106.539C59.638 106.539 60.0449 100.924 58.3855 98.7387L56.2187 100.456C56.2187 100.456 58.4119 104.881 57.0748 107.917C57.0748 107.917 56.9004 101.382 55.7483 100.887C55.7483 100.887 53.8563 102.588 53.5709 103.288C53.5709 103.288 55.0666 106.517 54.1364 108.192C54.1364 108.192 53.5657 103.837 53.0795 103.815C53.0795 103.815 51.1928 106.7 50.9972 108.66C51.0886 106.833 51.6479 105.063 52.6196 103.524C51.5323 103.734 50.5291 104.264 49.7341 105.048C49.7341 105.048 50.0248 103.008 53.0847 102.83C53.0847 102.83 54.6702 100.639 55.0613 100.504C55.0613 100.504 52.0172 100.246 50.1728 101.08C50.1728 101.08 51.7952 99.1586 55.6215 100.004L57.7354 98.2273C57.7354 98.2273 53.7295 97.689 52.0277 98.2865C52.0277 98.2865 53.9832 96.5854 58.3115 97.8236L60.6368 96.4078C60.6368 96.4078 57.2228 95.6541 55.1881 95.9287C55.1881 95.9287 57.3338 94.7497 61.3186 96.0256L62.9833 95.2665C62.9833 95.2665 60.4783 94.7659 59.749 94.6851C59.0196 94.6044 58.9774 94.3998 58.9774 94.3998C60.5621 94.1312 62.189 94.3176 63.6756 94.9382C63.6756 94.9382 67.2429 93.63 67.1689 93.4039Z" fill="#5AC235"/>
<path d="M94.2016 94.368C94.2016 94.368 88.405 78.9564 78.4899 85.4995C78.4899 85.4995 76.4423 85.9945 76.338 88.0645C76.338 88.0645 77.1531 87.7328 77.553 89.3686C77.702 89.9483 77.92 90.5076 78.2027 91.0348C78.5832 91.7505 79.1919 92.3202 79.9357 92.6567C79.9357 92.6567 83.5949 96.084 91.3455 94.5852C91.3455 94.5852 93.423 95.1146 93.8022 94.907L91.5639 92.8669C91.5639 92.8669 90.0927 94.5633 88.2418 94.5722C88.2418 94.5722 91.5416 93.0001 91.2462 92.5447C91.202 92.446 90.0115 91.5195 90.0115 91.5195C90.0115 91.5195 87.443 94.456 84.5834 94.3857C84.5834 94.3857 88.7636 93.0259 89.5702 91.1579L87.7118 89.8481C87.7118 89.8481 85.148 93.0857 81.8905 93.1273C81.8905 93.1273 86.2126 91.5571 87.2871 89.5881L85.2822 88.5429C85.2822 88.5429 82.7166 91.6581 80.0059 91.6728C80.0059 91.6728 84.8199 89.3611 84.8039 88.3353C84.8039 88.3353 82.9029 87.4899 82.2857 87.5104C82.2857 87.5104 80.3778 89.7056 78.8186 89.5697C78.8186 89.5697 81.8746 87.6897 81.7281 87.3194C81.7281 87.3194 78.946 86.8733 77.4197 87.3813C78.8122 86.8397 80.3193 86.6665 81.791 86.8789C81.2712 86.1366 80.5408 85.5641 79.6903 85.2321C79.6903 85.2321 81.3086 84.7682 82.4643 86.9945C82.4643 86.9945 84.6279 87.4474 84.8591 87.6946C84.8591 87.6946 84.0337 85.3346 82.7949 84.2355C82.7949 84.2355 84.7702 84.8059 85.4196 87.9459L87.451 88.9319C87.451 88.9319 86.5127 85.76 85.4981 84.6884C85.4981 84.6884 87.4203 85.5812 87.9446 89.2274L89.7778 90.4917C89.7778 90.4917 89.198 87.6901 88.3129 86.262C88.3129 86.262 89.9093 87.4711 90.2907 90.8733L91.4133 91.8634C91.4133 91.8634 90.9488 89.8252 90.7652 89.2535C90.5815 88.6818 90.7198 88.5819 90.7198 88.5819C91.4501 89.676 91.8552 90.9534 91.8896 92.2709C91.8896 92.2709 94.0578 94.4987 94.2016 94.368Z" fill="#F1CA00"/>
<path d="M38.7214 114.703C38.7214 114.703 31.8225 95.3717 19.6774 103.166C19.6774 103.166 17.1741 103.712 17.0203 106.278C17.0203 106.278 18.0168 105.892 18.4852 107.934C18.6605 108.659 18.9203 109.361 19.2591 110.025C19.7119 110.929 20.447 111.66 21.3508 112.104C21.3508 112.104 25.7737 116.48 35.2422 114.887C35.2422 114.887 37.763 115.616 38.2202 115.347L35.4985 112.75C35.4985 112.75 33.686 114.802 31.4292 114.756C31.4292 114.756 35.4693 112.911 35.1178 112.343C35.0693 112.217 33.6222 111.021 33.6222 111.021C33.6222 111.021 30.4527 114.585 26.9718 114.394C26.9718 114.394 32.0996 112.845 33.09 110.563L30.8399 108.875C30.8399 108.875 27.6731 112.801 23.6996 112.743C23.6996 112.743 28.9875 110.942 30.3255 108.537L27.8899 107.169C27.8899 107.169 24.7275 110.943 21.4234 110.869C21.4234 110.869 27.32 108.169 27.3293 106.889C27.3293 106.889 25.0215 105.777 24.2609 105.765C24.2609 105.765 21.9239 108.401 20.0151 108.203C20.0151 108.203 23.7406 105.99 23.5927 105.533C23.5927 105.533 20.2093 104.883 18.3224 105.468C20.0294 104.844 21.8718 104.681 23.666 104.996C23.0422 104.057 22.1603 103.321 21.1288 102.877C21.1288 102.877 23.1105 102.359 24.4898 105.157C24.4898 105.157 27.1148 105.771 27.4008 106.111C27.4008 106.111 26.425 103.156 24.9251 101.75C24.9251 101.75 27.3313 102.523 28.0572 106.446L30.531 107.765C30.531 107.765 29.4401 103.787 28.2019 102.435C28.2019 102.435 30.5331 103.607 31.1304 108.145L33.3472 109.777C33.3472 109.777 32.6712 106.279 31.6137 104.477C31.6137 104.477 33.5462 106.039 33.9674 110.27L35.3266 111.535C35.3266 111.535 34.7841 108.99 34.5641 108.273C34.344 107.555 34.5159 107.437 34.5159 107.437C35.3949 108.82 35.8762 110.419 35.9058 112.056C35.9058 112.056 38.5274 114.853 38.7214 114.703Z" fill="#5AC235"/>
<path d="M89.0545 125.955C89.0545 125.955 74.2893 116.999 70.4654 128.496C70.4654 128.496 69.1157 130.171 70.3762 131.917C70.3762 131.917 70.8219 131.153 72.2166 132.227C72.7113 132.603 73.2476 132.921 73.8151 133.175C74.5892 133.519 75.4538 133.605 76.2779 133.42C76.2779 133.42 81.5004 133.936 86.8466 127.92C86.8466 127.92 88.8841 127.059 89.0379 126.648L85.8887 126.371C85.8887 126.371 85.7907 128.668 84.2816 129.825C84.2816 129.825 85.9499 126.491 85.4298 126.316C85.3221 126.28 83.7563 126.239 83.7563 126.239C83.7563 126.239 83.5677 130.228 81.1872 131.947C81.1872 131.947 83.7158 128.244 83.1617 126.219L80.7905 126.292C80.7905 126.292 80.7991 130.538 78.1695 132.582C78.1695 132.582 80.6785 128.617 80.2768 126.346L77.9616 126.743C77.9616 126.743 77.8903 130.869 75.6887 132.567C75.6887 132.567 78.1107 127.702 77.4386 126.869C77.4386 126.869 75.3362 127.36 74.8428 127.759C74.8428 127.759 74.7237 130.719 73.3552 131.591C73.3552 131.591 74.6245 128.164 74.2803 127.962C74.2803 127.962 71.7204 129.326 70.7934 130.701C71.5812 129.395 72.7003 128.316 74.0405 127.572C73.1321 127.292 72.163 127.28 71.2515 127.536C71.2515 127.536 72.2759 126.156 74.6863 127.246C74.6863 127.246 76.7255 126.263 77.0942 126.332C77.0942 126.332 74.8872 124.926 73.1587 124.799C73.1587 124.799 75.1455 124.035 77.7032 126.206L80.0208 125.757C80.0208 125.757 77.1981 123.74 75.6678 123.517C75.6678 123.517 77.8162 123.046 80.6146 125.692L82.9367 125.58C82.9367 125.58 80.6348 123.662 78.9936 123.05C78.9936 123.05 81.0861 123.041 83.6099 125.579L85.1691 125.683C85.1691 125.683 83.4652 124.315 82.9406 123.964C82.4161 123.613 82.4661 123.446 82.4661 123.446C83.7751 123.881 84.9383 124.669 85.8254 125.719C85.8254 125.719 89.0161 126.146 89.0545 125.955Z" fill="#D1AF00"/>
<path d="M106.56 110.532L90.3008 105.119V55.2046L107.269 60.8535C107.492 60.9279 107.687 61.0708 107.824 61.2619C107.962 61.453 108.036 61.6826 108.036 61.9182V109.468C108.036 109.645 107.994 109.821 107.913 109.979C107.832 110.137 107.715 110.274 107.57 110.378C107.426 110.482 107.259 110.55 107.084 110.577C106.908 110.604 106.728 110.588 106.56 110.532Z" fill="#FFCBA0"/>
</svg>
